svg/color/asmlon.svg

<svg width="40" height="40" viewBox="0 0 40 40" fill="none" xmlns="http://www.w3.org/2000/svg">
<g clip-path="url(#clip0_821_4081)">
<path d="M20 0C31.0457 0 40 8.9543 40 20C40 31.0457 31.0457 40 20 40C8.95431 40 7.90517e-06 31.0457 0 20C6.58765e-07 8.95431 8.95431 1.97595e-06 20 0Z" fill="#CFD3E8"/>
<path d="M26 6C30.4183 6 34 9.58172 34 14V26C34 30.4183 30.4183 34 26 34H14C9.58172 34 6 30.4183 6 26V14C6 9.58172 9.58172 6 14 6H26Z" fill="#0F238C"/>
<path d="M23.3804 22.6885L24.0724 19.3348L24.3359 22.6885H25.8291L25.137 17.3652H23.54L22.7948 20.5592L22.0495 17.3652H20.4526L19.7605 22.6885H21.251L21.5172 19.3348L22.2092 22.6885H23.3804Z" fill="white"/>
<path d="M28.0116 17.3652H26.5743V22.6885H29.9812V21.5706H28.0116V17.3652Z" fill="white"/>
<path d="M13.4258 17.3652H11.6158L10.0189 22.6885H11.6159L11.8288 21.7303H13.2128L13.4258 22.6885H15.0228L13.4258 17.3652ZM12.5208 18.5364L12.9999 20.7189L12.0417 20.7189L12.5208 18.5364Z" fill="white"/>
<path d="M18.8556 18.8558C17.5329 17.6989 15.4689 18.1693 15.4487 19.2284C15.1486 17.2633 17.525 16.853 18.8555 17.4717C18.8792 17.7873 18.9029 18.127 18.8556 18.8558Z" fill="white"/>
<path d="M17.7582 19.4826C17.4249 19.3525 16.9401 19.2342 16.9394 18.8553C16.9391 18.7005 17.0028 18.5325 17.3118 18.4299C16.2472 18.5364 15.8921 19.8315 17.0696 20.4752C17.2749 20.5874 17.6312 20.7064 17.6312 21.0915C17.6312 21.5414 17.1369 21.7041 16.8118 21.6972C16.2717 21.6858 15.8374 21.4971 15.3422 21.1447V22.4223C15.9282 22.6746 16.8828 22.9656 17.8398 22.6713C18.6132 22.4334 19.2814 21.7842 19.2814 21.0915C19.2815 19.9643 18.3032 19.6953 17.7582 19.4826Z" fill="white"/>
</g>
<defs>
<clipPath id="clip0_821_4081">
<rect width="40" height="40" fill="white"/>
</clipPath>
</defs>
</svg>

<svg xmlns="http://www.w3.org/2000/svg" width="40" height="40" fill="none" viewBox="0 0 40 40"><g clip-path="url(#asmlon_svg-a)"><path fill="#CFD3E8" d="M20 0c11.046 0 20 8.954 20 20s-8.954 20-20 20S0 31.046 0 20 8.954 0 20 0"/><path fill="#0F238C" d="M26 6a8 8 0 0 1 8 8v12a8 8 0 0 1-8 8H14a8 8 0 0 1-8-8V14a8 8 0 0 1 8-8z"/><path fill="#fff" d="m23.38 22.689.692-3.354.264 3.354h1.493l-.692-5.324H23.54l-.745 3.194-.746-3.194h-1.596l-.692 5.324h1.49l.266-3.354.692 3.354zm4.632-5.324h-1.438v5.324h3.407V21.57h-1.97zm-14.586 0h-1.81l-1.597 5.324h1.597l.213-.959h1.384l.213.959h1.597zm-.905 1.171L13 20.72h-.958zm6.335.32c-1.323-1.157-3.387-.687-3.407.372-.3-1.965 2.076-2.375 3.406-1.756.024.315.048.655 0 1.384"/><path fill="#fff" d="M17.758 19.483c-.333-.13-.818-.249-.819-.628 0-.154.064-.323.373-.425-1.065.106-1.42 1.401-.242 2.045.205.112.561.231.561.616 0 .45-.494.613-.82.606-.54-.011-.974-.2-1.469-.552v1.277c.586.253 1.54.544 2.498.25.773-.239 1.441-.888 1.441-1.58 0-1.128-.978-1.397-1.523-1.61"/></g><defs><clipPath id="asmlon_svg-a"><path fill="#fff" d="M0 0h40v40H0z"/></clipPath></defs></svg>
